X:34
T:Dilim O'Deamhas
B:Terry "Cuz" Teahan "Sliabh Luachra on Parade" 1980
Z:Patrick Cavanagh
M:12/8
L:1/8
R:Slide
K:G
| BAB d2e d3 d3 | BAB d2B A3 A3 | 
BAB d2e d2B A2F | GAB G2E D3 D3 :| 
| BAB E2F G3 G3 | BAB d2B A3 A3 | 
BAB d2e d2B A2F | GAB G2E D3 D3 :|| 

